icons-dark/actions/22/news-unsubscribe.svg

<svg xmlns="http://www.w3.org/2000/svg" viewBox="0 0 22 22">
 <path d="m4 3v2h-1v1 13h1 15v-1-12-1h-1v-2h-13-1m1 1h12v1h-12v-1m-1 2h14v12h-14v-12m1 1v4h4v-4h-4m6 0v1h6v-1h-6m0 3v1h6v-1h-6m-6 2v5h12v-5h-12" style="fill:#da4453"/>
</svg>

<?xml version="1.0" encoding="UTF-8" standalone="no"?>
<!-- Created with Inkscape (http://www.inkscape.org/) -->

<svg
   xmlns:dc="http://purl.org/dc/elements/1.1/"
   xmlns:cc="http://creativecommons.org/ns#"
   xmlns:rdf="http://www.w3.org/1999/02/22-rdf-syntax-ns#"
   xmlns:svg="http://www.w3.org/2000/svg"
   xmlns="http://www.w3.org/2000/svg"
   xmlns:sodipodi="http://sodipodi.sourceforge.net/DTD/sodipodi-0.dtd"
   xmlns:inkscape="http://www.inkscape.org/namespaces/inkscape"
   width="22"
   height="22"
   id="svg18109"
   version="1.1"
   inkscape:version="0.48+devel r"
   sodipodi:docname="news-unsubscribe.svg">
  <defs
     id="defs18111" />
  <sodipodi:namedview
     id="base"
     pagecolor="#ffffff"
     bordercolor="#666666"
     borderopacity="1.0"
     inkscape:pageopacity="0.0"
     inkscape:pageshadow="2"
     inkscape:zoom="24.342444"
     inkscape:cx="12.691867"
     inkscape:cy="13.244711"
     inkscape:document-units="px"
     inkscape:current-layer="layer1"
     showgrid="true"
     inkscape:window-width="1366"
     inkscape:window-height="666"
     inkscape:window-x="-2"
     inkscape:window-y="25"
     inkscape:window-maximized="1"
     inkscape:showpageshadow="false"
     showguides="true">
    <inkscape:grid
       type="xygrid"
       id="grid4122" />
    <sodipodi:guide
       position="3,3.0000174"
       orientation="-16,0"
       id="guide4126" />
    <sodipodi:guide
       position="3,19.000017"
       orientation="0,16"
       id="guide4128" />
    <sodipodi:guide
       position="19,19.000017"
       orientation="16,0"
       id="guide4130" />
    <sodipodi:guide
       position="19,3.0000174"
       orientation="0,-16"
       id="guide4132" />
    <sodipodi:guide
       position="2,2.0000174"
       orientation="-18,0"
       id="guide4134" />
    <sodipodi:guide
       position="2,20.000017"
       orientation="0,18"
       id="guide4136" />
    <sodipodi:guide
       position="20,20.000017"
       orientation="18,0"
       id="guide4138" />
    <sodipodi:guide
       position="20,2.0000174"
       orientation="0,-18"
       id="guide4140" />
  </sodipodi:namedview>
  <metadata
     id="metadata18114">
    <rdf:RDF>
      <cc:Work
         rdf:about="">
        <dc:format>image/svg+xml</dc:format>
        <dc:type
           rdf:resource="http://purl.org/dc/dcmitype/StillImage" />
        <dc:title></dc:title>
      </cc:Work>
    </rdf:RDF>
  </metadata>
  <g
     inkscape:label="Capa 1"
     inkscape:groupmode="layer"
     id="layer1"
     transform="translate(0,-1030.3622)">
    <path
       style="opacity:1;fill:#da4453;fill-opacity:1;stroke:none;stroke-width:2.79999995;stroke-miterlimit:4;stroke-dasharray:none;stroke-opacity:0.55026455"
       d="M 4 3 L 4 5 L 3 5 L 3 6 L 3 19 L 4 19 L 19 19 L 19 18 L 19 6 L 19 5 L 18 5 L 18 3 L 5 3 L 4 3 z M 5 4 L 17 4 L 17 5 L 5 5 L 5 4 z M 4 6 L 18 6 L 18 18 L 4 18 L 4 6 z M 5 7 L 5 11 L 9 11 L 9 7 L 5 7 z M 11 7 L 11 8 L 17 8 L 17 7 L 11 7 z M 11 10 L 11 11 L 17 11 L 17 10 L 11 10 z M 5 12 L 5 17 L 17 17 L 17 12 L 5 12 z "
       transform="translate(0,1030.3622)"
       id="rect4146" />
  </g>
</svg>
